icons/16x16/panel/qbittorrent-tray.svg

<svg xmlns="http://www.w3.org/2000/svg" width="16" height="16" version="1">
 <defs>
  <style id="current-color-scheme" type="text/css">
   .ColorScheme-Text { color:#f8f8f2; } .ColorScheme-Highlight { color:#5294e2; }
  </style>
 </defs>
 <path style="fill:currentColor" class="ColorScheme-Text" d="M 9,1 C 8.446,1 8,1.446 8,2 l 0,6 0,3 c 0,0.554 0.446,1 1,1 0.554,0 1,-0.446 1,-1 l 0,-0.173828 C 10.321041,10.940492 10.659213,10.999276 11,11 12.656854,11 14,9.6568542 14,8 14,6.3431458 12.656854,5 11,5 10.6591,5.00135 10.320925,5.060796 10,5.1757812 L 10,2 C 10,1.446 9.554,1 9,1 Z M 6,4 C 5.446,4 5,4.446 5,5 L 5,5.1738281 C 4.6789593,5.059508 4.3407869,5.0007242 4,5 2.3431458,5 1,6.3431458 1,8 1,9.656854 2.3431458,11 4,11 4.3408996,10.9986 4.6790752,10.9392 5,10.824219 L 5,14 c 0,0.554 0.446,1 1,1 0.554,0 1,-0.446 1,-1 L 7,8 7,5 C 7,4.446 6.554,4 6,4 Z m 4,3 1,0 1,0 0,1 0,1 -1,0 -1,0 0,-1 z M 3,7 4,7 5,7 5,8 5,9 4,9 3,9 3,8 Z"/>
</svg>

<svg xmlns="http://www.w3.org/2000/svg" width="16" height="16" version="1">
 <defs>
  <style id="current-color-scheme" type="text/css">
   .ColorScheme-Text { color:#f8f8f2; } .ColorScheme-Highlight { color:#4285f4; }
  </style>
 </defs>
 <path style="fill:currentColor" class="ColorScheme-Text" d="M 9 1 C 8.446 1 8 1.446 8 2 L 8 8 L 8 11 C 8 11.554 8.446 12 9 12 C 9.554 12 10 11.554 10 11 L 10 10.826172 C 10.321041 10.940492 10.659213 10.999276 11 11 C 12.656854 11 14 9.6568542 14 8 C 14 6.3431458 12.656854 5 11 5 C 10.6591 5.00135 10.320925 5.0607961 10 5.1757812 L 10 2 C 10 1.446 9.554 1 9 1 z M 10 7 L 11 7 L 12 7 L 12 8 L 12 9 L 11 9 L 10 9 L 10 8 L 10 7 z"/>
 <path style="fill:currentColor;opacity:0.3" class="ColorScheme-Text" d="M 6 4 C 5.446 4 5 4.446 5 5 L 5 5.1738281 C 4.6789593 5.059508 4.3407869 5.0007242 4 5 C 2.3431458 5 1 6.3431458 1 8 C 1 9.656854 2.3431458 11 4 11 C 4.3408996 10.9986 4.6790752 10.9392 5 10.824219 L 5 14 C 5 14.554 5.446 15 6 15 C 6.554 15 7 14.554 7 14 L 7 8 L 7 5 C 7 4.446 6.554 4 6 4 z M 3 7 L 4 7 L 5 7 L 5 8 L 5 9 L 4 9 L 3 9 L 3 8 L 3 7 z"/>
</svg>
